img/hero-1.svg

<svg width="80" height="81" viewBox="0 0 80 81" fill="none" xmlns="http://www.w3.org/2000/svg">
<path fill-rule="evenodd" clip-rule="evenodd" d="M5.65086 0.152948C2.96707 0.679952 0.685683 3.00824 0.165558 5.75113C-0.055186 6.91488 -0.055186 73.0959 0.165558 74.2597C0.698033 77.0674 2.96551 79.3349 5.77327 79.8674C6.93202 80.0872 54.0503 80.0872 55.209 79.8674C58.0168 79.3349 60.2843 77.0674 60.8167 74.2597C60.9155 73.7391 60.9763 69.3608 60.9763 62.7753V52.1324L69.9373 43.1376C78.2269 34.8165 78.9304 34.0691 79.3297 33.1576C80.2386 31.0829 80.2233 29.1015 79.283 27.0919C78.0373 24.4298 74.8521 22.743 71.9956 23.2323C69.8161 23.6056 69.2768 23.9939 64.9288 28.3203L60.9763 32.2532V22.7059C60.9763 16.9703 60.9137 12.8223 60.8192 12.3164C60.4553 10.3666 60.0044 9.76595 55.5994 5.36076C51.1942 0.955726 50.5936 0.504857 48.6438 0.140911C47.5965 -0.0545072 6.64906 -0.0430948 5.65086 0.152948ZM42.2162 10.7887C42.2162 16.834 42.2201 16.9106 42.5667 17.5272C43.2493 18.7416 43.2637 18.7439 50.183 18.7439H56.2863V27.8513V36.9586L50.9694 42.2732L45.6525 47.5876L43.8562 52.9938C42.8681 55.9673 42.061 58.6054 42.0624 58.8563C42.0686 59.9397 43.2447 61.1105 44.3269 61.1105C45.08 61.1105 55.495 57.5785 55.9203 57.1789L56.2863 56.8349V65.1543C56.2863 73.1835 56.2754 73.4949 55.9716 74.0904C55.769 74.4876 55.437 74.8197 55.0397 75.0223C54.4294 75.3337 54.1675 75.337 30.4911 75.337C7.30207 75.337 6.5415 75.3277 5.97823 75.0404C5.6371 74.8664 5.25221 74.4862 5.04647 74.1202L4.69597 73.4966L4.69675 39.9841L4.69754 6.47167L5.06727 5.86087C5.83502 4.59253 4.27856 4.68774 24.355 4.68039L42.2162 4.67383V10.7887ZM48.1077 4.83766C48.6932 5.05544 55.7881 12.1161 56.0676 12.7591C56.1878 13.0358 56.2863 13.4403 56.2863 13.6581V14.0539H51.5963H46.9063V9.36386V4.67383H47.2869C47.4963 4.67383 47.8657 4.74746 48.1077 4.83766ZM10.6554 23.7286C10.0012 24.0773 9.38788 25.0583 9.38679 25.7577C9.38569 26.5137 9.98226 27.4775 10.6683 27.8274C11.2284 28.1132 11.8645 28.124 28.1461 28.124C44.7718 28.124 45.0526 28.119 45.6596 27.8093C46.3533 27.4553 46.9063 26.5547 46.9063 25.779C46.9063 25.0032 46.3533 24.1026 45.6596 23.7487C45.0523 23.4388 44.7785 23.4341 28.1133 23.4405C12.1148 23.4468 11.1548 23.4626 10.6554 23.7286ZM74.1125 28.126C74.7872 28.4703 75.3591 29.3761 75.3591 30.1007C75.3591 30.8431 74.7797 31.7609 73.5236 33.009L72.3045 34.2202L70.6266 32.537L68.9485 30.8539L70.2387 29.5751C70.9483 28.8717 71.74 28.1876 71.9979 28.0547C72.6378 27.7253 73.3757 27.7502 74.1125 28.126ZM10.6554 33.1087C10.0012 33.4573 9.38788 34.4383 9.38679 35.1378C9.38569 35.8938 9.98226 36.8576 10.6683 37.2075C11.2243 37.4912 11.7795 37.504 23.4561 37.504C35.3813 37.504 35.6769 37.4969 36.2796 37.1893C36.9732 36.8354 37.5262 35.9348 37.5262 35.159C37.5262 34.3833 36.9732 33.4827 36.2796 33.1287C35.6764 32.8211 35.3882 32.8142 23.4233 32.8206C11.9421 32.8267 11.1512 32.8445 10.6554 33.1087ZM63.3229 43.2082L57.694 48.837L56.014 47.1571L54.3339 45.4769L59.9594 39.8498L65.5848 34.2227L67.2683 35.901L68.9518 37.5792L63.3229 43.2082ZM10.6554 42.4888C10.0012 42.8374 9.38788 43.8184 9.38679 44.5178C9.38569 45.2739 9.98226 46.2377 10.6683 46.5875C11.2243 46.8713 11.7795 46.8841 23.4561 46.8841C35.3813 46.8841 35.6769 46.8769 36.2796 46.5694C36.9732 46.2155 37.5262 45.3148 37.5262 44.5391C37.5262 43.7634 36.9732 42.8627 36.2796 42.5088C35.6764 42.2011 35.3882 42.1942 23.4233 42.2006C11.9421 42.2067 11.1512 42.2246 10.6554 42.4888ZM52.6909 50.5583L54.327 52.1999L53.7043 52.8071C53.1715 53.3263 52.7325 53.5296 50.6689 54.2115C49.3421 54.65 48.2351 54.9875 48.209 54.9614C48.1829 54.9353 48.521 53.8283 48.9603 52.5015C49.6138 50.5273 49.8607 49.9825 50.3186 49.5027C50.6262 49.1803 50.9178 48.9165 50.9664 48.9165C51.015 48.9165 51.7909 49.6553 52.6909 50.5583ZM10.6554 51.8688C10.0012 52.2175 9.38788 53.1985 9.38679 53.8979C9.38569 54.6539 9.98226 55.6177 10.6683 55.9676C11.2243 56.2514 11.7795 56.2642 23.4561 56.2642C35.3813 56.2642 35.6769 56.257 36.2796 55.9495C36.9732 55.5955 37.5262 54.6949 37.5262 53.9192C37.5262 53.1434 36.9732 52.2428 36.2796 51.8888C35.6764 51.5812 35.3882 51.5743 23.4233 51.5807C11.9421 51.5868 11.1512 51.6046 10.6554 51.8688ZM29.4156 66.2516C28.7613 66.6002 28.148 67.5812 28.1469 68.2807C28.1458 69.0367 28.7424 70.0005 29.4284 70.3504C29.9752 70.6294 30.4546 70.6469 37.5262 70.6469C44.7509 70.6469 45.0667 70.6347 45.6596 70.3322C46.3533 69.9783 46.9063 69.0777 46.9063 68.3019C46.9063 67.5262 46.3533 66.6255 45.6596 66.2716C45.066 65.9688 44.7579 65.9572 37.4934 65.9635C30.5294 65.9696 29.903 65.9919 29.4156 66.2516Z" fill="white"/>
</svg>

<svg width="80" height="81" fill="none" xmlns="http://www.w3.org/2000/svg"><path fill-rule="evenodd" clip-rule="evenodd" d="M5.65.153C2.968.68.687 3.008.167 5.75c-.221 1.164-.221 67.345 0 68.509.532 2.807 2.8 5.075 5.607 5.607 1.159.22 48.277.22 49.436 0 2.808-.532 5.075-2.8 5.608-5.607.099-.52.16-4.9.16-11.485V52.132l8.96-8.994c8.29-8.322 8.993-9.069 9.393-9.98.909-2.075.893-4.056-.047-6.066-1.246-2.662-4.43-4.349-7.287-3.86-2.18.374-2.72.762-7.067 5.088l-3.953 3.933v-9.547c0-5.736-.062-9.884-.157-10.39-.364-1.95-.815-2.55-5.22-6.955C51.194.956 50.594.505 48.644.14 47.597-.055 6.649-.043 5.65.153zm36.566 10.636c0 6.045.004 6.122.35 6.738.683 1.215.698 1.217 7.617 1.217h6.103v18.215l-5.317 5.314-5.316 5.315-1.797 5.406c-.988 2.973-1.795 5.611-1.794 5.862.007 1.084 1.183 2.255 2.265 2.255.753 0 11.168-3.532 11.593-3.932l.366-.344v8.32c0 8.028-.01 8.34-.314 8.935-.203.398-.535.73-.932.932-.61.312-.873.315-24.549.315-23.189 0-23.95-.01-24.513-.297-.34-.174-.726-.554-.932-.92l-.35-.623V39.984l.002-33.512.37-.611c.767-1.268-.79-1.173 19.287-1.18l17.861-.007v6.115zm5.892-5.951c.585.217 7.68 7.278 7.96 7.921.12.277.218.681.218.9v.395h-9.38v-9.38h.38c.21 0 .58.073.822.164zm-37.453 18.89c-.654.35-1.267 1.33-1.268 2.03-.001.756.595 1.72 1.281 2.07.56.285 1.197.296 17.478.296 16.626 0 16.907-.005 17.514-.315.693-.354 1.246-1.254 1.246-2.03 0-.776-.553-1.676-1.246-2.03-.608-.31-.881-.315-17.547-.308-15.998.006-16.958.022-17.458.288zm63.457 4.398c.675.344 1.247 1.25 1.247 1.975 0 .742-.58 1.66-1.835 2.908l-1.22 1.211-1.677-1.683-1.678-1.683 1.29-1.279c.71-.703 1.501-1.387 1.759-1.52.64-.33 1.378-.305 2.114.071zm-63.457 4.983c-.654.348-1.267 1.33-1.268 2.029-.001.756.595 1.72 1.281 2.07.556.283 1.112.296 12.788.296 11.925 0 12.22-.007 12.824-.315.693-.354 1.246-1.254 1.246-2.03 0-.776-.553-1.676-1.246-2.03-.604-.308-.892-.315-12.857-.308-11.48.006-12.272.023-12.768.288zm52.668 10.1l-5.629 5.628-1.68-1.68-1.68-1.68 5.625-5.627 5.626-5.627 1.683 1.678 1.684 1.678-5.63 5.63zm-52.668-.72c-.654.348-1.267 1.33-1.268 2.029-.001.756.595 1.72 1.281 2.07.556.283 1.112.296 12.788.296 11.925 0 12.22-.007 12.824-.315.693-.354 1.246-1.254 1.246-2.03 0-.776-.553-1.676-1.246-2.03-.604-.308-.892-.315-12.857-.308-11.48.006-12.272.024-12.768.288zm42.036 8.07l1.636 1.64-.623.608c-.532.52-.971.723-3.035 1.404-1.327.439-2.434.776-2.46.75-.026-.026.312-1.133.751-2.46.654-1.974.9-2.518 1.359-2.998.307-.323.599-.587.647-.587.049 0 .825.74 1.725 1.642zm-42.036 1.31c-.654.349-1.267 1.33-1.268 2.029-.001.756.595 1.72 1.281 2.07.556.283 1.112.296 12.788.296 11.925 0 12.22-.007 12.824-.315.693-.353 1.246-1.254 1.246-2.03 0-.776-.553-1.676-1.246-2.03-.604-.308-.892-.315-12.857-.308-11.48.006-12.272.024-12.768.288zm18.76 14.383c-.654.348-1.267 1.33-1.268 2.029-.001.756.595 1.72 1.281 2.07.547.278 1.027.296 8.098.296 7.225 0 7.54-.012 8.134-.315.693-.354 1.246-1.254 1.246-2.03 0-.776-.553-1.677-1.246-2.03-.594-.303-.902-.315-8.167-.309-6.964.007-7.59.029-8.077.289z" fill="#fff"/></svg>
